raw-svg/file-arrow-up.svg

<svg fill="none" height="24" viewBox="0 0 24 24" width="24" xmlns="http://www.w3.org/2000/svg"><path clip-rule="evenodd" d="m5.25 6c0-1.51421 1.23579-2.75 2.75-2.75h4.5c.1989 0 .3897.07902.5303.21967l5.5 5.5c.1407.14065.2197.33142.2197.53033v8.5c0 1.5142-1.2358 2.75-2.75 2.75h-8c-1.51421 0-2.75-1.2358-2.75-2.75zm2.75-1.25c-.68579 0-1.25.56421-1.25 1.25v12c0 .6858.56421 1.25 1.25 1.25h8c.6858 0 1.25-.5642 1.25-1.25v-7.75h-4.75c-.4142 0-.75-.33579-.75-.75v-4.75zm5.25 1.06066 2.9393 2.93934h-2.9393zm-.7197 6.15904c-.2929-.2929-.7677-.2929-1.0606 0l-2.00003 2c-.29289.2929-.29289.7677 0 1.0606s.76773.2929 1.06063 0l.7197-.7196v3.1893c0 .4142.3358.75.75.75s.75-.3358.75-.75v-3.1893l.7197.7196c.2929.2929.7677.2929 1.0606 0s.2929-.7677 0-1.0606z" fill="#000" fill-rule="evenodd"/></svg>

<svg width="24" height="24" viewBox="0 0 24 24" fill="none" xmlns="http://www.w3.org/2000/svg">
<path fill-rule="evenodd" clip-rule="evenodd" d="M5.25 6C5.25 4.48579 6.48579 3.25 8 3.25H12.5C12.6989 3.25 12.8897 3.32902 13.0303 3.46967L18.5303 8.96967C18.671 9.11032 18.75 9.30109 18.75 9.5V18C18.75 19.5142 17.5142 20.75 16 20.75H8C6.48579 20.75 5.25 19.5142 5.25 18V6ZM8 4.75C7.31421 4.75 6.75 5.31421 6.75 6V18C6.75 18.6858 7.31421 19.25 8 19.25H16C16.6858 19.25 17.25 18.6858 17.25 18V10.25H12.5C12.0858 10.25 11.75 9.91421 11.75 9.5V4.75H8ZM13.25 5.81066L16.1893 8.75H13.25V5.81066ZM12.5303 11.9697C12.2374 11.6768 11.7626 11.6768 11.4697 11.9697L9.46967 13.9697C9.17678 14.2626 9.17678 14.7374 9.46967 15.0303C9.76256 15.3232 10.2374 15.3232 10.5303 15.0303L11.25 14.3107V17.5C11.25 17.9142 11.5858 18.25 12 18.25C12.4142 18.25 12.75 17.9142 12.75 17.5V14.3107L13.4697 15.0303C13.7626 15.3232 14.2374 15.3232 14.5303 15.0303C14.8232 14.7374 14.8232 14.2626 14.5303 13.9697L12.5303 11.9697Z" fill="black"/>
</svg>
